X: 42
T: Ma demoiselle m'a maistresse
N: Derived from Bus3038-Ma_demoiselle_ma_maistresse.krn
C: Antoine Busnoys
%%abc-version 2.0
%%abcx-abcm2ps-target-version 5.9.1 (29 Sep 2008)
%%abc-creator hum2abc beta
%%abcx-conversion-date 2019/02/16 20:26:07
%%abc-edited-by Jesse Rodin
%%abc-edited-by Chris Gage 04-13-2015
%%abcx-initial-encoding-date 2015/05/05/
%%humdrum-veritas 1736996223
%%humdrum-veritas-data 2965355767
%%linebreak <none>
%%barnumbers 0
L: 1/4
M: 3/1
Q: 1/2=120
V: 1 clef=treble
V: 2 clef=treble-8
V: 3 clef=treble-8
K: C
[V:1] E6F2G4 | 
[V:2] e4c2d2e4 | 
[V:3] z4z4c4 | 
[V:1] A4A4B4 | 
[V:2] f2edc2d4e2- | 
[V:3] F8G4 | 
[V:1] c6BAG2A2 | 
[V:2] e2A4GFE2F2 | 
[V:3] A4F4G2D2 | 
[V:1] B2c3BA4^G2 | 
[V:2] E2e3dc2B4 | 
[V:3] G2A4A2E4 | 
[V:1] A12 | 
[V:2] A8z4 | 
[V:3] e6f4ed | 
[V:1] z4z4A4 | 
[V:2] A4G2E2F4 | 
[V:3] c2f3ee4d2 | 
[V:1] G2E2F4E2A2- | 
[V:2] E2A4B2c4 | 
[V:3] e4z4A4 | 
[V:1] A2B2c6B2 | 
[V:2] d4e4A4 | 
[V:3] F2G2C4F4 | 
[V:1] G4A6G2 | 
[V:2] B4c6B2 | 
[V:3] E4e6d2 | 
[V:1] B2z2E4F4 | 
[V:2] G4C4z4 | 
[V:3] d4c3BA3G | 
[V:1] G4A2GFE4 | 
[V:2] E4F4G4 | 
[V:3] G4z4B4 | 
[V:1] F2G4E4D2 | 
[V:2] A2GFE2G2F4 | 
[V:3] c6B2A3G | 
[V:1] E2F2G2A4GF | 
[V:2] E2A2G2c4B2 | 
[V:3] G2F2E2C2D4 | 
[V:1] E2A2G2c4B2 | 
[V:2] c2f2e2c2d4 | 
[V:3] C2z2C4G4 | 
[V:1] c8z4 | 
[V:2] c4z4_B4 | 
[V:3] C4E3FG4 | 
[V:1] z4_B4A4 | 
[V:2] A4G2G4F2 | 
[V:3] F2G4D6 | 
[V:1] G2G4F2G2c2- | 
[V:2] G2_B2A4G2A2- | 
[V:3] E2G2D4E2F2- | 
[V:1] c_BAG/A/B2AGF2GA | 
[V:2] A_Bc2d2c_BA2_Bc | 
[V:3] FGA2G2A_Bc2_BA | 
[V:1] _B2A3G^FEF3E | 
[V:2] d2c3_BAGA4 | 
[V:3] G2AF2GDED4 | 
[V:1] G12 | 
[V:2] G4z4B4- | 
[V:3] z2d4B2G4 | 
[V:1] G2F4E4D2 | 
[V:2] B2A3DG2F4 | 
[V:3] z2c4B4A2 | 
[V:1] E4z2E3FG2 | 
[V:2] E3FG2A4B2 | 
[V:3] B6c4d2 | 
[V:1] A4B2c4BA | 
[V:2] A2c2d2e4dc | 
[V:3] e4z2A4Bc | 
[V:1] G2A2B2c2B2c2- | 
[V:2] B2A2G2A2E2e2- | 
[V:3] d2c2B2A2G2A2- | 
[V:1] c2BABA^G^FG4 | 
[V:2] e2dcdcBAB4 | 
[V:3] A2BcG3AE4 | 
[V:1] A12 |]  
[V:2] A12 |]  
[V:3] e12 |]  



